svg/motor_starter.svg

<svg width="24" height="24" viewBox="0 0 24 24" xmlns="http://www.w3.org/2000/svg"><path d="M8.75 10h-1.5v4h1.5v-4zM18 12a2 2 0 1 1-4 0 2 2 0 0 1 4 0z"/><path fill-rule="evenodd" clip-rule="evenodd" d="M19 7H5c-1.1 0-2 .9-2 2v6c0 1.1.9 2 2 2h14c1.1 0 2-.9 2-2V9c0-1.1-.9-2-2-2zM8 15c-1.7 0-3-1.3-3-3s1.3-3 3-3 3 1.3 3 3-1.3 3-3 3zm8 0c-1.7 0-3-1.3-3-3s1.3-3 3-3 3 1.3 3 3-1.3 3-3 3z"/></svg>

<svg width="24" height="24" viewBox="0 0 24 24"  xmlns="http://www.w3.org/2000/svg">
<path d="M8.75 10H7.25V14H8.75V10Z" />
<path d="M18 12C18 13.1046 17.1046 14 16 14C14.8954 14 14 13.1046 14 12C14 10.8954 14.8954 10 16 10C17.1046 10 18 10.8954 18 12Z" />
<path fill-rule="evenodd" clip-rule="evenodd" d="M19 7H5C3.9 7 3 7.9 3 9V15C3 16.1 3.9 17 5 17H19C20.1 17 21 16.1 21 15V9C21 7.9 20.1 7 19 7ZM8 15C6.3 15 5 13.7 5 12C5 10.3 6.3 9 8 9C9.7 9 11 10.3 11 12C11 13.7 9.7 15 8 15ZM16 15C14.3 15 13 13.7 13 12C13 10.3 14.3 9 16 9C17.7 9 19 10.3 19 12C19 13.7 17.7 15 16 15Z" />
</svg>
